X:940
T:Oran Na Maighdean-Mhara
C:Joe Buchanan's Scottish Tome - Page 548.3
I:548 3
Z:Carl Allison
R:Waltz
L:1/4
M:3/4
K:F
F2F | A2 B | c B2 | A2 c | F2 F | A2 B | c B2 | A3 | 
G2 G | G2 B | c B2 | G2 _E | F2 F | A2 c | G G2 | F3 | 
A2 c | f2 c | d2 B | c F2 | A2 c | f c2 | d B2 | c3 | 
c c2 | F2 A | B B2 | G2 _E | F2 F | A2 c | G G2 | F3 |]

